static/assets/images/logos/monochrome/robin-hood.svg

<svg height="88" width="141" xmlns="http://www.w3.org/2000/svg"><g fill="none"><path d="M19.531 36.153c-.988.332-1.112 1.49-1.12 2.379-.018 3.423.004 6.85-.01 10.278.029.8-.015 1.688.483 2.37.647.67 1.745.702 2.557.348.87-.44.907-1.524.929-2.368.015-3.412 0-6.83.007-10.241-.044-.82.044-1.776-.57-2.42-.593-.565-1.537-.576-2.276-.346zm-.691-3.2c2.008-.377 4.353-.1 5.838 1.435 1.08 1.089 1.445 2.667 1.438 4.158 0 3.654.022 7.31-.007 10.965.036 1.999-.995 4.096-2.905 4.896-1.964.822-4.368.775-6.223-.318-1.679-1.012-2.374-3.054-2.319-4.932.022-3.786-.055-7.57.04-11.35.038-2.334 1.798-4.504 4.138-4.855zM0 33.093c2.418.063 4.858-.167 7.262.194 1.76.249 3.369 1.47 3.877 3.2.83 2.913.688 6.764-2.15 8.547 1.053 3.212 2.08 6.434 3.127 9.65h-3.8c-.883-2.97-1.764-5.945-2.646-8.915-.644.029-1.287.054-1.935.084v8.83H0zm3.742 3.037a741.93 741.93 0 0 0 0 6.672c1.27-.073 3.084.248 3.739-1.166a6.646 6.646 0 0 0-.004-4.351c-.665-1.4-2.465-1.078-3.735-1.155zm25.988-3.043c2.396.052 4.81-.153 7.196.154 1.683.234 3.245 1.366 3.753 3.025.812 2.463.406 5.77-2.114 7.08 1.097.604 2.162 1.43 2.546 2.676.574 1.808.48 3.836-.212 5.6-.684 1.744-2.459 2.858-4.295 2.979-2.286.164-4.584.032-6.877.073.003-7.195 0-14.392.003-21.587zm3.743 18.554c1.29-.062 3.036.245 3.804-1.09.63-1.303.633-2.947.066-4.274-.713-1.432-2.524-1.264-3.867-1.315-.007 2.225-.003 4.454-.003 6.679zm.003-15.525a778.51 778.51 0 0 0 0 5.846c1.003-.07 2.173.132 2.974-.628 1.123-1.052 1.08-2.887.425-4.184-.673-1.216-2.232-.983-3.399-1.034zM45.31 54.674v-21.59h3.735v21.59zm7.862-21.587c1.156-.003 2.312-.003 3.468-.003 1.536 4.15 3.05 8.312 4.598 12.459.015-4.15 0-8.305.008-12.46 1.126 0 2.253 0 3.38.004v21.587h-3.26c-1.606-4.53-3.19-9.07-4.807-13.596-.014 4.53-.003 9.065-.007 13.596h-3.384c.004-7.198 0-14.392.004-21.587zm50.417.048c1.844-.322 3.93-.143 5.429 1.074 1.295 1.034 1.844 2.737 1.833 4.348 0 3.782.029 7.567-.015 11.348 0 2.032-1.189 4.096-3.15 4.805-1.993.694-4.375.625-6.167-.563-1.497-1.026-2.14-2.897-2.107-4.65.021-3.892-.074-7.787.047-11.674.084-2.284 1.855-4.334 4.13-4.688zm.436 3.328c-.86.475-.85 1.579-.875 2.434-.003 3.416 0 6.836 0 10.256.033.72-.01 1.516.428 2.137.637.782 1.913.826 2.737.336.826-.518.76-1.618.808-2.466.004-3.3-.007-6.6.004-9.898-.022-.811.01-1.68-.414-2.408-.647-.752-1.843-.818-2.688-.39zm14.56-3.31c1.99-.38 4.301-.14 5.812 1.334 1.182 1.136 1.555 2.83 1.526 4.417-.015 3.65.029 7.304-.022 10.954.01 1.98-1.087 4.026-2.985 4.78-1.98.777-4.39.723-6.223-.421-1.566-1.001-2.257-2.923-2.217-4.717.007-3.774-.033-7.545.022-11.32-.03-2.374 1.701-4.64 4.086-5.027zm.457 3.34c-.835.493-.79 1.582-.83 2.418-.012 3.296.006 6.592-.008 9.884.036.822-.048 1.72.402 2.455.622.81 1.891.866 2.737.402.852-.512.808-1.626.84-2.488 0-3.42.005-6.836-.003-10.256-.033-.844-.003-1.94-.845-2.426-.691-.377-1.613-.38-2.293.01zm-34.699-3.216h3.743c-.004 2.93-.004 5.857-.004 8.784 1.324.007 2.649.004 3.97.007.003-2.93 0-5.86.003-8.79h3.742c0 7.197.004 14.392 0 21.59-1.247 0-2.495 0-3.742-.004-.004-3.186 0-6.376-.004-9.566h-3.965c-.004 3.19 0 6.38-.004 9.57-1.247 0-2.495 0-3.739-.004-.003-7.194-.003-14.39 0-21.587zm45.19 0c2.56.1 5.173-.255 7.7.29 2.115.492 3.458 2.564 3.633 4.64.249 2.667.062 5.352.125 8.03-.022 2.152.164 4.505-1.05 6.402-.878 1.414-2.554 2.108-4.167 2.185-2.078.102-4.16.018-6.24.043-.005-7.197 0-14.392 0-21.59zm3.742 3.037c.004 5.173-.007 10.347.004 15.52.991-.07 2.067.092 2.985-.368.911-.552.951-1.732.977-2.678.015-3.04 0-6.084.007-9.124-.04-.994.03-2.23-.86-2.9-.914-.596-2.081-.374-3.113-.45z" fill="#000000"/><path d="M71.197 32.105a.708.708 0 0 1 .346-.1c1.598-.062 3.198.5 4.442 1.496 1.504 1.194 2.47 2.932 3.072 4.728l.823-.098.126-.148.766.099c-.216.1-.43.2-.646.296-.245-.137-.525-.033-.786-.02.18.182.16.448.194.683a.769.769 0 0 1-.022.317c.631 1.06.94 2.28.89 3.512-.07 1.755-.724 3.455-1.691 4.908l-.209-.044.087-.153c-.75-.887-1.504-1.77-2.251-2.66.13.274.058.565-.007.844-.076.542-.38 1.01-.636 1.48-.167.306-.38.587-.533.9-.023.289-.048.6.083.87.076.17.213.309.277.487.167.404.152.848.184 1.276.032.492.058.986.092 1.478.053.434.18.855.248 1.287.021.164-.037.335.024.494.096.28.221.553.307.838.039.247.035.5.03.75-.007.172-.127.38-.321.37-.266-.002-.535.02-.8-.017-.274-.075-.345-.39-.43-.623-.033-.604.096-1.216-.027-1.815-.04-.238-.077-.476-.114-.714-.046-.348-.192-.67-.3-1.001-.286.067-.43.327-.62.52-.274.078-.56.108-.84.16-.155.038-.305-.017-.449-.068.008-.118.017-.236.028-.355.249-.045.593-.094.664-.386.064-.246.296-.516.122-.762-.131-.298-.438-.44-.677-.636-.518-.433-1.184-.625-1.739-1-.216-.193-.557-.11-.767-.313-.169-.205-.342-.43-.389-.697.014-.135.09-.252.16-.365.411-.63.81-1.267 1.238-1.886.328-.427.79-.721 1.226-1.027.087-.058.135-.153.187-.24.14-.255.283-.507.426-.76-.078-.22-.185-.433-.229-.665-.037-.152-.036-.33-.159-.444-.464-.521-.924-1.046-1.386-1.57-.08-.101-.213-.121-.329-.157-.286-.08-.572-.165-.861-.234-.721-.16-1.412-.427-2.094-.703a.352.352 0 0 1-.224-.373c-.001-.131.112-.212.2-.293.163-.132.229-.357.417-.463.109-.068.24-.07.365-.076.75-.024 1.5-.054 2.25-.08-.214-.34-.366-.726-.658-1.01l-.45-.481c.329-.192.658-.383.987-.572l.063-.188c-.235.044-.464.17-.709.122-.164-.024-.314-.097-.468-.151-.19-.071-.397-.017-.593-.008.202-.34.63-.444 1-.423.387.002.753.137 1.13.202.131.057.243.147.363.223l-.215-4.52zm6.941 7.503c-.265.086-.532.168-.798.25-.292.056-.374.424-.662.488-.374.064-.753.099-1.13.155.126.415.086.85.113 1.278.014.323.172.615.23.929.046.338-.018.68.011 1.02.175.384.328.796.625 1.11.72.854 1.436 1.714 2.155 2.57.746-1.334 1.248-2.835 1.254-4.375.001-1.228-.3-2.48-.984-3.511-.272.017-.553-.007-.814.086zm-3.409-.741c.285.06.564.164.854.194.645-.113 1.284-.26 1.927-.384.292-.067.595-.094.872-.21-1.22.11-2.436.27-3.653.4zm-3.164-6.707c.086 1.508.176 3.016.263 4.524.167.029.34.042.503.093.26.17.415.484.722.583.337.117.677.226 1.012.354-.208.39-.705.403-1.09.469.028.2 0 .4-.027.6.283-.152.564-.34.889-.383.268-.023.5.148.696.309 1.334-.138 2.668-.286 4.002-.428-.403-1.477-1.095-2.905-2.178-4.005a7.067 7.067 0 0 0-4.792-2.115zm.453 15.769c.113.12.229.24.37.326.335.215.668.433 1.004.645.06-.336.19-.66.19-1.003.015-.428.151-.845.136-1.274-.527.485-1.12.887-1.7 1.306z" fill="#000000"/></g></svg>

<?xml version="1.0" encoding="UTF-8" standalone="no"?>
<!DOCTYPE svg PUBLIC "-//W3C//DTD SVG 1.1//EN" "http://www.w3.org/Graphics/SVG/1.1/DTD/svg11.dtd">
<svg viewBox="0 0 141 88" version="1.1" xmlns="http://www.w3.org/2000/svg" xmlns:xlink="http://www.w3.org/1999/xlink" xml:space="preserve" xmlns:serif="http://www.serif.com/" style="fill-rule:evenodd;clip-rule:evenodd;stroke-linejoin:round;stroke-miterlimit:2;">
    <g>
        <path d="M19.531,36.153C18.543,36.485 18.419,37.643 18.411,38.532C18.393,41.955 18.415,45.382 18.401,48.81C18.43,49.61 18.386,50.498 18.884,51.18C19.531,51.85 20.629,51.882 21.441,51.528C22.311,51.088 22.348,50.004 22.37,49.16C22.385,45.748 22.37,42.33 22.377,38.919C22.333,38.099 22.421,37.143 21.807,36.499C21.214,35.934 20.27,35.923 19.531,36.153ZM18.84,32.953C20.848,32.576 23.193,32.853 24.678,34.388C25.758,35.477 26.123,37.055 26.116,38.546C26.116,42.2 26.138,45.856 26.109,49.511C26.145,51.51 25.114,53.607 23.204,54.407C21.24,55.229 18.836,55.182 16.981,54.089C15.302,53.077 14.607,51.035 14.662,49.157C14.684,45.371 14.607,41.587 14.702,37.807C14.74,35.473 16.5,33.303 18.84,32.952L18.84,32.953ZM0,33.093C2.418,33.156 4.858,32.926 7.262,33.287C9.022,33.536 10.631,34.757 11.139,36.487C11.969,39.4 11.827,43.251 8.989,45.034C10.042,48.246 11.069,51.468 12.116,54.684L8.316,54.684C7.433,51.714 6.552,48.739 5.67,45.769C5.026,45.798 4.383,45.823 3.735,45.853L3.735,54.683L0,54.683L0,33.093ZM3.742,36.13C3.732,38.354 3.732,40.578 3.742,42.802C5.012,42.729 6.826,43.05 7.481,41.636C7.968,40.227 7.966,38.694 7.477,37.285C6.812,35.885 5.012,36.207 3.742,36.13ZM29.73,33.087C32.126,33.139 34.54,32.934 36.926,33.241C38.609,33.475 40.171,34.607 40.679,36.266C41.491,38.729 41.085,42.036 38.565,43.346C39.662,43.95 40.727,44.776 41.111,46.022C41.685,47.83 41.591,49.858 40.899,51.622C40.215,53.366 38.44,54.48 36.604,54.601C34.318,54.765 32.02,54.633 29.727,54.674C29.73,47.479 29.727,40.282 29.73,33.087ZM33.473,51.641C34.763,51.579 36.509,51.886 37.277,50.551C37.907,49.248 37.91,47.604 37.343,46.277C36.63,44.845 34.819,45.013 33.476,44.962C33.469,47.187 33.473,49.416 33.473,51.641ZM33.476,36.116C33.469,38.065 33.469,40.013 33.476,41.962C34.479,41.892 35.649,42.094 36.45,41.334C37.573,40.282 37.53,38.447 36.875,37.15C36.202,35.934 34.643,36.167 33.476,36.116ZM45.31,54.674L45.31,33.084L49.045,33.084L49.045,54.674L45.31,54.674ZM53.172,33.087C54.328,33.084 55.484,33.084 56.64,33.084C58.176,37.234 59.69,41.396 61.238,45.543C61.253,41.393 61.238,37.238 61.246,33.083C62.372,33.083 63.499,33.083 64.626,33.087L64.626,54.674L61.366,54.674C59.76,50.144 58.176,45.604 56.559,41.078C56.545,45.608 56.556,50.143 56.552,54.674L53.168,54.674C53.172,47.476 53.168,40.282 53.172,33.087ZM103.589,33.135C105.433,32.813 107.519,32.992 109.018,34.209C110.313,35.243 110.862,36.946 110.851,38.557C110.851,42.339 110.88,46.124 110.836,49.905C110.836,51.937 109.647,54.001 107.686,54.71C105.693,55.404 103.311,55.335 101.519,54.147C100.022,53.121 99.379,51.25 99.412,49.497C99.433,45.605 99.338,41.71 99.459,37.823C99.543,35.539 101.314,33.489 103.589,33.135ZM104.025,36.463C103.165,36.938 103.175,38.042 103.15,38.897C103.147,42.313 103.15,45.733 103.15,49.153C103.183,49.873 103.14,50.669 103.578,51.29C104.215,52.072 105.491,52.116 106.315,51.626C107.141,51.108 107.075,50.008 107.123,49.16C107.127,45.86 107.116,42.56 107.127,39.262C107.105,38.451 107.137,37.582 106.713,36.854C106.066,36.102 104.87,36.036 104.025,36.464L104.025,36.463ZM118.585,33.153C120.575,32.773 122.886,33.013 124.397,34.487C125.579,35.623 125.952,37.317 125.923,38.904C125.908,42.554 125.952,46.208 125.901,49.858C125.911,51.838 124.814,53.884 122.916,54.638C120.936,55.415 118.526,55.361 116.693,54.217C115.127,53.216 114.436,51.294 114.476,49.5C114.483,45.726 114.443,41.955 114.498,38.18C114.468,35.806 116.199,33.54 118.584,33.153L118.585,33.153ZM119.042,36.493C118.207,36.986 118.252,38.075 118.212,38.911C118.2,42.207 118.218,45.503 118.204,48.795C118.24,49.617 118.156,50.515 118.606,51.25C119.228,52.06 120.497,52.116 121.343,51.652C122.195,51.14 122.151,50.026 122.183,49.164C122.183,45.744 122.188,42.328 122.18,38.908C122.147,38.064 122.177,36.968 121.335,36.482C120.644,36.105 119.722,36.102 119.042,36.492L119.042,36.493ZM84.343,33.277L88.086,33.277C88.082,36.207 88.082,39.134 88.082,42.061C89.406,42.068 90.731,42.065 92.052,42.068C92.055,39.138 92.052,36.208 92.055,33.278L95.797,33.278C95.797,40.475 95.801,47.67 95.797,54.868C94.55,54.868 93.302,54.868 92.055,54.864C92.051,51.678 92.055,48.488 92.051,45.298L88.086,45.298C88.082,48.488 88.086,51.678 88.082,54.868C86.835,54.868 85.587,54.868 84.343,54.864C84.34,47.67 84.34,40.474 84.343,33.277ZM129.533,33.277C132.093,33.377 134.706,33.022 137.233,33.567C139.348,34.059 140.691,36.131 140.866,38.207C141.115,40.874 140.928,43.559 140.991,46.237C140.969,48.389 141.155,50.742 139.941,52.639C139.063,54.053 137.387,54.747 135.774,54.824C133.696,54.926 131.614,54.842 129.534,54.867C129.529,47.67 129.534,40.475 129.534,33.277L129.533,33.277ZM133.275,36.314C133.279,41.487 133.268,46.661 133.279,51.834C134.27,51.764 135.346,51.926 136.264,51.466C137.175,50.914 137.215,49.734 137.241,48.788C137.256,45.748 137.241,42.704 137.248,39.664C137.208,38.67 137.278,37.434 136.388,36.764C135.474,36.168 134.307,36.39 133.275,36.314Z" style="fill-rule:nonzero;"/>
        <path d="M71.197,32.105C71.302,32.042 71.421,32.008 71.543,32.005C73.141,31.943 74.741,32.505 75.985,33.501C77.489,34.695 78.455,36.433 79.057,38.229L79.88,38.131L80.006,37.983L80.772,38.082C80.556,38.182 80.342,38.282 80.126,38.378C79.881,38.241 79.601,38.345 79.34,38.358C79.52,38.54 79.5,38.806 79.534,39.041C79.549,39.147 79.541,39.255 79.512,39.358C80.143,40.418 80.452,41.638 80.402,42.87C80.332,44.625 79.678,46.325 78.711,47.778L78.502,47.734L78.589,47.581C77.839,46.694 77.085,45.811 76.338,44.921C76.468,45.195 76.396,45.486 76.331,45.765C76.255,46.307 75.951,46.775 75.695,47.245C75.528,47.551 75.315,47.832 75.162,48.145C75.139,48.434 75.114,48.745 75.245,49.015C75.321,49.185 75.458,49.324 75.522,49.502C75.689,49.906 75.674,50.35 75.706,50.778C75.738,51.27 75.764,51.764 75.798,52.256C75.851,52.69 75.978,53.111 76.046,53.543C76.067,53.707 76.009,53.878 76.07,54.037C76.166,54.317 76.291,54.59 76.377,54.875C76.416,55.122 76.412,55.375 76.407,55.625C76.4,55.797 76.28,56.005 76.086,55.995C75.82,55.993 75.551,56.015 75.286,55.978C75.012,55.903 74.941,55.588 74.856,55.355C74.823,54.751 74.952,54.139 74.829,53.54C74.789,53.302 74.752,53.064 74.715,52.826C74.669,52.478 74.523,52.156 74.415,51.825C74.129,51.892 73.985,52.152 73.795,52.345C73.521,52.423 73.235,52.453 72.955,52.505C72.8,52.543 72.65,52.488 72.506,52.437C72.514,52.319 72.523,52.201 72.534,52.082C72.783,52.037 73.127,51.988 73.198,51.696C73.262,51.45 73.494,51.18 73.32,50.934C73.189,50.636 72.882,50.494 72.643,50.298C72.125,49.865 71.459,49.673 70.904,49.298C70.688,49.105 70.347,49.188 70.137,48.985C69.968,48.78 69.795,48.555 69.748,48.288C69.762,48.153 69.838,48.036 69.908,47.923C70.319,47.293 70.718,46.656 71.146,46.037C71.474,45.61 71.936,45.316 72.372,45.01C72.459,44.952 72.507,44.857 72.559,44.77C72.699,44.515 72.842,44.263 72.985,44.01C72.907,43.79 72.8,43.577 72.756,43.345C72.719,43.193 72.72,43.015 72.597,42.901C72.133,42.38 71.673,41.855 71.211,41.331C71.131,41.23 70.998,41.21 70.882,41.174C70.596,41.094 70.31,41.009 70.021,40.94C69.3,40.78 68.609,40.513 67.927,40.237C67.776,40.179 67.683,40.025 67.703,39.864C67.702,39.733 67.815,39.652 67.903,39.571C68.066,39.439 68.132,39.214 68.32,39.108C68.429,39.04 68.56,39.038 68.685,39.032C69.435,39.008 70.185,38.978 70.935,38.952C70.721,38.612 70.569,38.226 70.277,37.942L69.827,37.461C70.156,37.269 70.485,37.078 70.814,36.889L70.877,36.701C70.642,36.745 70.413,36.871 70.168,36.823C70.004,36.799 69.854,36.726 69.7,36.672C69.51,36.601 69.303,36.655 69.107,36.664C69.309,36.324 69.737,36.22 70.107,36.241C70.494,36.243 70.86,36.378 71.237,36.443C71.368,36.5 71.48,36.59 71.6,36.666L71.385,32.146L71.197,32.105ZM78.138,39.608C77.873,39.694 77.606,39.776 77.34,39.858C77.048,39.914 76.966,40.282 76.678,40.346C76.304,40.41 75.925,40.445 75.548,40.501C75.674,40.916 75.634,41.351 75.661,41.779C75.675,42.102 75.833,42.394 75.891,42.708C75.937,43.046 75.873,43.388 75.902,43.728C76.077,44.112 76.23,44.524 76.527,44.838C77.247,45.692 77.963,46.552 78.682,47.408C79.428,46.074 79.93,44.573 79.936,43.033C79.937,41.805 79.636,40.553 78.952,39.522C78.68,39.539 78.399,39.515 78.138,39.608ZM74.729,38.867C75.014,38.927 75.293,39.031 75.583,39.061C76.228,38.948 76.867,38.801 77.51,38.677C77.802,38.61 78.105,38.583 78.382,38.467C77.162,38.577 75.946,38.737 74.729,38.867ZM71.565,32.16C71.651,33.668 71.741,35.176 71.828,36.684C71.995,36.713 72.168,36.726 72.331,36.777C72.591,36.947 72.746,37.261 73.053,37.36C73.39,37.477 73.73,37.586 74.065,37.714C73.857,38.104 73.36,38.117 72.975,38.183C73.003,38.383 72.975,38.583 72.948,38.783C73.231,38.631 73.512,38.443 73.837,38.4C74.105,38.377 74.337,38.548 74.533,38.709C75.867,38.571 77.201,38.423 78.535,38.281C78.132,36.804 77.44,35.376 76.357,34.276C75.09,32.984 73.374,32.226 71.565,32.161L71.565,32.16ZM72.018,47.929C72.131,48.049 72.247,48.169 72.388,48.255C72.723,48.47 73.056,48.688 73.392,48.9C73.452,48.564 73.582,48.24 73.582,47.897C73.597,47.469 73.733,47.052 73.718,46.623C73.191,47.108 72.598,47.51 72.018,47.929Z" style="fill-rule:nonzero;"/>
    </g>
</svg>
